X:912
T:Sound of Mull, The
S:Neil Paterson, Milnathort
Z:Nigel Gatherer
M:3/4
L:1/4
K:D
A | AFA | A2A | BAF | A2 A | B>AB | ddF | E3- | E
DE | FFF | F2E | DDB, | D2 D/E/ | FAF | E>FE | D3- | D2 :|
